!!!!SEGMENT: pl-sa--l-1636--031_anonim--keyboard-piece.krn
!!!cenid: 17xx:738
!!!COM: Anonim
!!!COM-rismid: pe30004985
!!!CDT:
!!!CNT:
!!!OTL: [Keyboard piece]
!!!PDT:
!!!AGN: Secular
!!!SMS-siglum: PL-SA
!!!SMS-shelfmark: L 1636
!!!SMS-shelfwork: 031 W
!!!SMS-variant:
!!!SMS-altvar:
!!!NIFC-rismid: 1001076504
!!!URL-scan: http://repozytorium.nifc.pl/skany/pl-sa-nut--l1636
!!!ONB-nifc: 9v, skan 0013, s. 1
**kern	**kern
*part1	*part1
*staff2	*staff1
*Iempty	*Iempty
*I"[Keyboard]	*
*I'keyb	*
*clefF4	*clefG2
*k[b-]	*k[b-]
*F:	*F:
*M2/2	*M2/2
*met(c|)	*met(c|)
=1	=1
!LO:TX:a:t=P:problem:mixed beam	!LO:TX:a:t=P:problem:mixed beam
!	!LO:TX:a:t=P:problem:
8FF/L	8ffyy\L
8F\J	8f/J
4E\	8gyy/L
.	8c/J
4D/	8f/L
.	8d/
4BB-/	8g/
.	8f/J
=2	=2
*	*^
8c\L	4g/	4e\
8G\	.	.
8A\	4a/	4f\
8F\J	.	.
!LO:TX:a:t=P:problem:mixed beam	!	!
8B-\L	2g/	4f\
8G\	.	.
8c\	.	4e\
8C\J	.	.
=3	=3	=3
*	*	*2\right
!LO:TX:a:t=P:problem:mixed beam	!	!
8FF/L	2a/	2f\
8F\	.	.
8A\	.	.
8B-\J	.	.
!LO:TX:a:t=P:problem:mixed beam	!	!
8c\L	2g/	2e\
8C/	.	.
8E/	.	.
8C/J	.	.
=4	=4	=4
8D\L	2f/	2d\
8F\	.	.
8E\	.	.
8D\J	.	.
8C/L	2g/	2e\
8BB-/	.	.
8AA/	.	.
8GG/J	.	.
=5	=5	=5
!LO:TX:a:t=P:problem:mixed beam	!	!
8FF/L	8a/L	8f\L
8F\	8cc/	8a\
8G\	8b-/	8g\
16A\L	8a/J	8f\J
16B-\JJ	.	.
8c\L	2g/	2e\
8B-\	.	.
8A\	.	.
8G\J	.	.
=6	=6	=6
8F\L	2a/	2f\
8C\	.	.
8D\	.	.
8AA\J	.	.
8BB-/L	2g/	4e\
8GG/	.	.
8C/	.	4e\
8CC/J	.	.
*	*v	*v
=7	=7
1F 1C 1FF	1a 1f 1c
!LO:TX:a:t=P:problem:w źródle końcowa kreska taktowa :||:	!LO:TX:a:t=P:problem:w źródle końcowa kreska taktowa :||:
==;;	==;;
*-	*-
!!!system-decoration: s1,s2
!!!EED: Antoni Szymański
!!!EST: 2020-12-07
!!!AIN: 1 empty
!!!ENC: Tomasz Grochalski
!!!END: 2020-06-11
